public/brand-walmart.svg

<svg width="300" height="74" viewBox="0 0 300 74" fill="none" xmlns="http://www.w3.org/2000/svg">
  <g clip-path="url(#clip0_304_61)">
    <path fill-rule="evenodd" clip-rule="evenodd"
      d="M166.688 46.9112C166.688 47.483 166.593 48.1501 166.498 48.6266C165.645 51.1044 163.369 52.7245 160.714 52.7245C158.344 52.7245 156.542 51.3903 156.542 48.5313C156.542 44.1475 161.283 43.0039 166.783 43.0039V46.9112H166.688ZM175.221 39.2872C175.221 32.1397 172.187 25.7546 161.852 25.7546C156.542 25.7546 152.276 27.2794 150 28.6136L151.707 34.4269C154.362 32.9021 157.301 32.0444 160.335 31.9491C165.645 31.9491 166.498 34.9034 166.498 36.8094V37.2859C155.025 37.2859 147.819 41.2885 147.819 49.389C147.819 54.3446 151.517 59.0144 157.965 59.0144C161.852 59.0144 165.171 57.4896 167.162 54.9164H167.351C167.351 54.9164 168.679 60.4439 175.885 58.3473C175.506 56.0601 175.316 53.5822 175.316 50.7232V39.2872H175.221ZM0 15.9386L8.72314 51.7715C10.1454 57.5849 12.6106 59.7768 19.8167 58.3473L24.4627 39.2872C25.6005 34.5222 26.4539 31.1867 27.2124 26.3264H27.3072C27.8761 31.1867 28.6346 34.5222 29.5828 39.2872L32.4273 52.5339C33.4703 57.1084 36.1252 59.9674 43.2364 58.3473L54.33 16.0339H45.3224L41.5297 34.3316C40.4867 39.6684 39.5386 43.8616 38.8748 48.7219C38.2111 43.8616 37.3578 39.859 36.3148 34.7128L32.4273 16.0339H23.0405L18.7737 34.2363C17.6359 39.7637 16.4981 44.2428 15.7396 48.9125H15.6448C14.8862 44.5287 13.9381 38.906 12.8951 33.5692L9.48167 15.9386H0ZM70.8281 46.9112C70.8281 47.483 70.8281 48.1501 70.6384 48.6266C69.7851 51.1044 67.5095 52.7245 64.8546 52.7245C62.4842 52.7245 60.6827 51.3903 60.6827 48.5313C60.6827 44.1475 65.4235 43.0039 70.9229 43.0039V46.9112H70.8281ZM79.4564 39.2872C79.4564 32.1397 76.4222 25.7546 66.0872 25.7546C60.7775 25.7546 56.5107 27.2794 54.2351 28.6136L55.9418 34.4269C58.5967 32.9021 61.536 32.0444 64.5702 31.9491C69.8799 31.9491 70.7332 34.9034 70.7332 36.8094V37.2859C59.2604 37.2859 52.0544 41.2885 52.0544 49.389C52.0544 54.3446 55.7522 59.0144 62.1997 59.0144C66.0872 59.0144 69.4058 57.4896 71.397 54.9164H71.5866C71.5866 54.9164 72.914 60.4439 80.1201 58.3473C79.7408 56.0601 79.5512 53.5822 79.5512 50.7232V39.2872H79.4564ZM92.6359 49.2937V15.9386H84.1024V58.252H92.6359V49.2937ZM201.485 16.0339V47.1971C201.485 51.4856 202.244 54.5352 204.046 56.346C205.563 57.9661 208.028 59.0144 210.967 59.0144C213.527 59.0144 215.992 58.5379 217.13 58.0614L217.035 51.295C216.182 51.5809 215.139 51.6762 213.812 51.6762C210.872 51.6762 209.924 49.8655 209.924 45.9582V34.141H217.415V26.0405H209.924V15.9386L201.485 16.0339ZM179.393 26.517V58.3473H188.211V42.0509C188.211 41.1932 188.306 40.4308 188.401 39.6684C189.064 36.2376 191.625 34.0457 195.417 34.0457C196.46 34.0457 197.124 34.141 197.977 34.2363V25.8499C197.314 25.7546 196.65 25.6593 196.081 25.6593C192.762 25.6593 189.064 27.7559 187.453 32.4256H187.263V26.4217L179.393 26.517ZM97.6612 26.517V58.3473H106.195V39.6684C106.195 38.8107 106.29 37.8577 106.574 37.0953C107.238 35.1893 109.039 32.9974 111.789 32.9974C115.297 32.9974 116.909 35.9517 116.909 40.1449V58.252H125.537V39.3825C125.537 38.5248 125.632 37.4765 125.917 36.8094C126.58 34.5222 128.761 32.9021 131.131 32.9021C134.64 32.9021 136.346 35.7611 136.346 40.812V58.252H144.975V39.5731C144.975 29.7572 139.949 25.7546 134.355 25.7546C131.795 25.7546 129.899 26.4217 128.097 27.47C126.58 28.423 125.253 29.7572 124.115 31.4726H124.02C122.598 27.9465 119.09 25.6593 115.297 25.7546C111.504 25.564 107.901 27.47 106.1 30.8055H106.005V26.517H97.6612Z"
      fill="#2563EB" />
    <path fill-rule="evenodd" clip-rule="evenodd"
      d="M263.59 25.0875C265.297 25.0875 266.719 24.1345 266.909 23.0862L268.521 3.93081C268.521 2.0248 266.34 0.5 263.59 0.5C260.841 0.5 258.66 2.0248 258.66 3.93081L260.367 23.0862C260.461 24.2298 261.884 25.0875 263.59 25.0875ZM253.255 31.0914C254.109 29.5666 254.014 27.9465 253.161 27.1841L237.516 16.2245C235.904 15.2715 233.439 16.4151 232.111 18.7977C230.689 21.1802 230.973 23.9439 232.585 24.8016L249.937 32.9021C250.98 33.2833 252.497 32.5209 253.255 31.0914ZM273.831 30.9961C274.684 32.5209 276.106 33.2833 277.244 32.8068L294.501 24.7063C296.113 23.7533 296.397 21.0849 294.975 18.7024C293.552 16.3198 291.182 15.1762 289.57 16.1292L273.925 27.1841C273.072 27.9465 272.977 29.5666 273.831 30.9961ZM263.59 48.9125C265.297 48.9125 266.719 49.8655 266.909 50.9138L268.521 70.0692C268.521 71.9752 266.34 73.5 263.59 73.5C260.841 73.5 258.66 71.9752 258.66 70.0692L260.367 50.9138C260.461 49.7702 261.884 48.9125 263.59 48.9125ZM273.831 43.0039C274.684 41.4791 276.106 40.7167 277.244 41.0979L294.501 49.1984C296.113 50.1514 296.397 52.8198 294.975 55.2024C293.552 57.5849 291.182 58.7285 289.57 57.7755L273.925 46.8159C273.072 46.1488 272.977 44.4334 273.831 43.0039ZM253.255 43.0039C254.109 44.4334 254.014 46.1488 253.161 46.9112L237.516 57.8708C235.904 58.8238 233.439 57.6802 232.111 55.2977C230.689 52.9151 230.973 50.2467 232.585 49.2937L249.937 41.1932C250.98 40.7167 252.497 41.4791 253.255 43.0039ZM298.198 56.1554H298.388C298.578 56.1554 298.767 56.0601 298.767 55.9648C298.767 55.7742 298.673 55.7742 298.483 55.7742H298.293V56.1554H298.198ZM298.198 57.0131H297.819V55.4883H298.388C298.673 55.4883 298.767 55.4883 298.957 55.5836C299.052 55.6789 299.147 55.7742 299.147 55.8695C299.147 56.0601 299.052 56.1554 298.862 56.2507C299.052 56.346 299.147 56.4413 299.147 56.6319C299.147 56.9178 299.241 56.9178 299.241 57.0131H298.862C298.767 56.9178 298.767 56.8225 298.767 56.6319C298.767 56.4413 298.673 56.4413 298.483 56.4413H298.293L298.198 57.0131ZM298.388 55.0118C297.724 55.0118 297.25 55.5836 297.25 56.2507C297.25 56.9178 297.724 57.4896 298.388 57.4896C299.052 57.4896 299.526 56.9178 299.526 56.2507C299.621 55.5836 299.052 55.0118 298.388 55.0118ZM298.388 54.7259C299.241 54.7259 299.905 55.393 299.905 56.2507C299.905 57.1084 299.241 57.7755 298.388 57.7755C297.535 57.7755 296.776 57.1084 296.776 56.2507C296.871 55.393 297.535 54.7259 298.388 54.7259Z"
      fill="#2563EB" />
  </g>
  <defs>
    <clipPath id="clip0_304_61">
      <rect width="300" height="73" fill="white" transform="translate(0 0.5)" />
    </clipPath>
  </defs>
</svg>

<svg width="300" height="74" fill="none" xmlns="http://www.w3.org/2000/svg"><g clip-path="url(#prefix__clip0_304_61)" fill-rule="evenodd" clip-rule="evenodd" fill="#2563EB"><path d="M166.688 46.911c0 .572-.095 1.24-.19 1.716-.853 2.477-3.129 4.097-5.784 4.097-2.37 0-4.172-1.334-4.172-4.193 0-4.383 4.741-5.527 10.241-5.527v3.907h-.095zm8.533-7.624c0-7.147-3.034-13.532-13.369-13.532-5.31 0-9.576 1.524-11.852 2.859l1.707 5.813c2.655-1.525 5.594-2.383 8.628-2.478 5.31 0 6.163 2.954 6.163 4.86v.477c-11.473 0-18.679 4.002-18.679 12.103 0 4.956 3.698 9.625 10.146 9.625 3.887 0 7.206-1.524 9.197-4.098h.189s1.328 5.528 8.534 3.431c-.379-2.287-.569-4.765-.569-7.624V39.287h-.095zM0 15.94l8.723 35.833c1.422 5.813 3.888 8.005 11.094 6.575l4.646-19.06c1.137-4.765 1.99-8.1 2.75-12.96h.094c.57 4.86 1.328 8.195 2.276 12.96l2.844 13.247c1.043 4.574 3.698 7.433 10.81 5.813L54.33 16.034h-9.008L41.53 34.332c-1.043 5.336-1.991 9.53-2.655 14.39-.664-4.86-1.517-8.863-2.56-14.01l-3.888-18.678h-9.386l-4.267 18.202c-1.138 5.528-2.276 10.007-3.034 14.677h-.095c-.759-4.384-1.707-10.007-2.75-15.344L9.482 15.94H0zM70.828 46.91c0 .572 0 1.24-.19 1.716-.853 2.477-3.129 4.097-5.783 4.097-2.37 0-4.172-1.334-4.172-4.193 0-4.383 4.74-5.527 10.24-5.527v3.907h-.095zm8.628-7.624c0-7.147-3.034-13.532-13.369-13.532-5.31 0-9.576 1.524-11.852 2.859l1.707 5.813c2.655-1.525 5.594-2.383 8.628-2.478 5.31 0 6.163 2.954 6.163 4.86v.477c-11.473 0-18.679 4.002-18.679 12.103 0 4.956 3.698 9.625 10.146 9.625 3.887 0 7.206-1.524 9.197-4.098h.19s1.327 5.528 8.533 3.431c-.38-2.287-.569-4.765-.569-7.624V39.287h-.095zm13.18 10.007V15.939h-8.534v42.313h8.534v-8.958zm108.849-33.26v31.163c0 4.289.759 7.338 2.561 9.149 1.517 1.62 3.982 2.668 6.921 2.668 2.56 0 5.025-.476 6.163-.953l-.095-6.766c-.853.286-1.896.381-3.223.381-2.94 0-3.888-1.81-3.888-5.718V34.141h7.491v-8.1h-7.491V15.939l-8.439.095zm-22.092 10.483v31.83h8.818V42.051c0-.858.095-1.62.19-2.383.663-3.43 3.224-5.622 7.016-5.622 1.043 0 1.707.095 2.56.19V25.85c-.663-.095-1.327-.19-1.896-.19-3.319 0-7.017 2.096-8.628 6.766h-.19v-6.004l-7.87.095zm-81.732 0v31.83h8.534V39.668c0-.857.095-1.81.379-2.573.664-1.906 2.465-4.098 5.215-4.098 3.508 0 5.12 2.955 5.12 7.148v18.107h8.628v-18.87c0-.857.095-1.905.38-2.573.663-2.287 2.844-3.907 5.214-3.907 3.509 0 5.215 2.86 5.215 7.91v17.44h8.629V39.573c0-9.816-5.026-13.818-10.62-13.818-2.56 0-4.456.667-6.258 1.715-1.517.953-2.844 2.287-3.982 4.003h-.095c-1.422-3.526-4.93-5.814-8.723-5.718-3.793-.191-7.396 1.715-9.197 5.05h-.095v-4.288h-8.344zM263.59 25.087c1.707 0 3.129-.953 3.319-2l1.612-19.156c0-1.906-2.181-3.431-4.931-3.431-2.749 0-4.93 1.525-4.93 3.43l1.707 19.156c.094 1.144 1.517 2.002 3.223 2.002zm-10.335 6.004c.854-1.524.759-3.145-.094-3.907l-15.645-10.96c-1.612-.953-4.077.191-5.405 2.574-1.422 2.382-1.138 5.146.474 6.004l17.352 8.1c1.043.381 2.56-.381 3.318-1.81zm20.576-.095c.853 1.525 2.275 2.287 3.413 1.81l17.257-8.1c1.612-.953 1.896-3.621.474-6.004-1.423-2.382-3.793-3.526-5.405-2.573l-15.645 11.055c-.853.762-.948 2.383-.094 3.812zM263.59 48.913c1.707 0 3.129.953 3.319 2l1.612 19.156c0 1.906-2.181 3.431-4.931 3.431-2.749 0-4.93-1.525-4.93-3.43l1.707-19.156c.094-1.144 1.517-2.002 3.223-2.002zm10.241-5.91c.853-1.524 2.275-2.286 3.413-1.905l17.257 8.1c1.612.953 1.896 3.622.474 6.004-1.423 2.383-3.793 3.526-5.405 2.574l-15.645-10.96c-.853-.667-.948-2.383-.094-3.812zm-20.576 0c.854 1.43.759 3.146-.094 3.908l-15.645 10.96c-1.612.953-4.077-.19-5.405-2.573-1.422-2.383-1.138-5.051.474-6.004l17.352-8.1c1.043-.477 2.56.285 3.318 1.81zm44.943 13.152h.19c.19 0 .379-.095.379-.19 0-.19-.094-.19-.284-.19h-.19v.38h-.095zm0 .858h-.379v-1.525h.569c.285 0 .379 0 .569.096.095.095.19.19.19.285 0 .191-.095.286-.285.382.19.095.285.19.285.38 0 .287.094.287.094.382h-.379c-.095-.095-.095-.19-.095-.381 0-.19-.094-.19-.284-.19h-.19l-.095.571zm.19-2.001c-.664 0-1.138.572-1.138 1.239 0 .667.474 1.239 1.138 1.239.664 0 1.138-.572 1.138-1.24.095-.666-.474-1.238-1.138-1.238zm0-.286c.853 0 1.517.667 1.517 1.525 0 .857-.664 1.525-1.517 1.525-.853 0-1.612-.668-1.612-1.525.095-.858.759-1.525 1.612-1.525z"/></g><defs><clipPath id="prefix__clip0_304_61"><path fill="#fff" transform="translate(0 .5)" d="M0 0h300v73H0z"/></clipPath></defs></svg>
